X: 59
T: Praeludia organi op. 5 – Allegretto
C: Franciszek Walczyński
%%abc-version 2.0
%%abcx-abcm2ps-target-version 5.9.1 (29 Sep 2008)
%%abc-creator hum2abc beta
%%abcx-conversion-date 2021/10/04 07:38:40
%%abc-edited-by Andrzej Borzym
%%abc-edited-by Krzysztof Stępień
%%abcx-initial-encoding-date 2021-07-26
%%humdrum-veritas 1425706408
%%humdrum-veritas-data 923185564
%%linebreak <none>
%%barnumbers 0
L: 1/4
M: 2/4
N: Derived from pl-kozmzk--mzk-m-159--048_walczynski-franciszek--praeludia-organi-op-5-allegretto.krn
Q: "48. Allegretto."
%%staves {1 2}
V: 1 clef=treble
V: 2 clef=bass
K: Ab
[V:1] z2 & AG | 
[V:2] z2 & z2 | 
[V:1] z2 & FG | 
[V:2] z2 & z2 | 
[V:1] z2 & =E2 | 
[V:2] z/ D/C/B,/ & z2 | 
[V:1] cB & F3/=E/ | 
[V:2] A,G, & z2 | 
[V:1] AB & F2- | 
[V:2] F,D, & z2 | 
[V:1] G2 & F/=E//=D//E | 
[V:2] C,C & z2 | 
[V:1] A=A & F2- | 
[V:2] C2 & F,_E, | 
[V:1] B=B & F2- | 
[V:2] B,A,- & D,2 | 
[V:1] !fermata!c2 & F/=E//=D//E | 
[V:2] A,/G,//F,//G, & !fermata!C,2 | 
[V:1] ag & z2 | 
[V:2] z2 & z2 | 
[V:1] fg & z2 | 
[V:2] z2 & z2 | 
[V:1] =e2 & z/ d/c/B/ | 
[V:2] z2 & z2 | 
[V:1] fe & cB | 
[V:2] AG & z2 | 
[V:1] de & AB | 
[V:2] FG & z2 | 
[V:1] c2 & G2 | 
[V:2] =E2 & z/ _D,/C,/B,,/ | 
[V:1] cB & F3/=E/ | 
[V:2] C2- & A,,G,, | 
[V:1] AB/G/ & F3/=E/ | 
[V:2] CB, & F,,G,,/C,/ | 
[V:1] F2 & F2 | 
[V:2] A,=A, & F,_E, | 
[V:1] FG & F2 | 
[V:2] B,2 & _D,2 | 
[V:1] A3/G/ & F=E | 
[V:2] C3/B,/- & C,2 | 
[V:1] F2- & C2- | 
[V:2] B,A,/G,/ & F,,2- | 
[V:1] !fermata!F2 & C2 |]  
[V:2] A,2 & !fermata!F,,2 |]  


